X:1
T:My honest dear neighbour I ne'er killed your cat
M:6/8
L:1/8
S:Stanford/Petrie (1905), No. 470
Z:AK/Fiddler's Companion <aikuntz:aol.com> tradtunes 2001-12-18
K:A
E |\
"A"(EA)A {B}c2c | "D"dcd "E7"Bcd |\
"A"cBA "D"GED | "E7"E3 "A"A2 H:|\
c |\
"E7"dBc d2e | "E7"dBc d2B |\
"E7"dee dBA | "B7"Bc^d "E7"e2 "d.C."y|]
